X: 23336
T: Leinster Buttermilk
R: reel
M: 4/4
K: Gmajor
B2 AB dBAc|BFAF EFGA|(3BcB AB dBAB|a3 g fd d2|
B2 AB dBAc|BFAF EFGA|BEGB dBAB|a3 g fd d2||
a2 fd ad d2|adfd Beef|a2 fd ad d2|gbag fd d2|
a2 fd ad d2|adfd Beef|a3e fedB|ABde fd d2||

